X: 22730
T: Lamont's Favourite
R: jig
M: 6/8
K: Dmajor
FG|:A/B/AF Ade|faf edB|ABd edB|AFE EFG|
A/B/AF Ade|faf edB|ABd faf|edc dcB:|
|:A/B/AA DF/G/A|BGB dcB|cA/B/c edc|dAd fga|
A/B/AA DF/G/A|BGB dcB|Aaf gec|1 edc dFG:|2 edc d3||

